X: 319
T: 320. Gott sei uns gn\"adig und barmherzig
N: Derived from chor320.krn
C: Johann Sebastian Bach
%%abc-version 2.0
%%abcx-abcm2ps-target-version 5.9.1 (29 Sep 2008)
%%abc-creator hum2abc beta
%%abcx-conversion-date 2019/03/11 17:28:19
%%abc-edited-by Craig Stuart Sapp
%%humdrum-veritas 2991227194
%%humdrum-veritas-data 1042470819
%%
%%barnumbers 0
L: 1/4
M: C
%%staves [1 2 3 4]
V: 1 clef=treble
V: 2 clef=treble
V: 3 clef=treble-8
V: 4 clef=bass
K: A
[V:1] c2e2 | 
[V:2] F2E2 | 
[V:3] A2B2 | 
[V:4] F,2G,2 | 
[V:1] cccc | 
[V:2] E^EFG | 
[V:3] cBAG | 
[V:4] A,G,F,^E, | 
[V:1] d2c2 | 
[V:2] F=E2F | 
[V:3] AB2A | 
[V:4] F,G,A,F, | 
[V:1] B4 | 
[V:2] F2E2 | 
[V:3] A2G2 | 
[V:4] D,B,,E,2 | 
[V:1] !fermata!A4 | 
[V:2] !fermata!E4 | 
[V:3] !fermata!A4 | 
[V:4] !fermata!A,,4 | 
[V:1] c2e2 | 
[V:2] E4 | 
[V:3] A2A2 | 
[V:4] A,,B,,C,D, | 
[V:1] BBBB | 
[V:2] EGFA | 
[V:3] GBAf | 
[V:4] E,2^D,2 | 
[V:1] B2FG | 
[V:2] G2F2 | 
[V:3] e2B2 | 
[V:4] E,2=D,2 | 
[V:1] A2G2 | 
[V:2] F3^E | 
[V:3] c2B2 | 
[V:4] C,4 | 
[V:1] F4- | 
[V:2] C2D2- | 
[V:3] ^A2B2- | 
[V:4] F,,=E,D,B,, | 
[V:1] !fermata!F4 |]  
[V:2] D2!fermata!C2 |]  
[V:3] B2!fermata!^A2 |]  
[V:4] !fermata!F,,4 |]  



